X:73
T:Iris on the bank of Thames
Z:Jack Campin, http://www.campin.me.uk/
F:Jack Campin's Nine-Note Tunebook
% last edit 03-02-2013
S:Simpson, The British Broadside Ballad and Its Music
M:C|
L:1/8
K:AMin
  A3 E  c2 B2| d2 B2 ^G4 |\
  A3 B (cG)A2|(GF)E2  E4 |\
  B3 c  B2^G2| A3   B c4||
|:G2E2  A2^F2| d2 B2 ^G4 |\
  A3 B  c2 B2|(A^G2)A A4:|

